assets/imgs/edit_icon/marker.svg

<svg viewBox="0 0 126.72 138.95" xmlns="http://www.w3.org/2000/svg"><g fill="#525566"><path d="m50.37 108.4 5.77-9.4-41.77-25.69-5.78 9.38s7.54 16.4-2.69 33l8.1 5 8.1 5c10.23-16.63 28.27-17.29 28.27-17.29z"/><path d="m99.6 28.41a5.69 5.69 0 0 0 -1.86-7.81l-32.11-19.76a5.68 5.68 0 0 0 -7.81 1.86l-41.36 67.21 41.78 25.7z"/><path d="m0 132.61h14.02l3.61-5.86-10.66-6.56z"/><path d="m124.8 131.47h-98.93a1.92 1.92 0 0 0 -1.87 1.92v3.61a1.92 1.92 0 0 0 1.87 2h98.93a1.92 1.92 0 0 0 1.92-1.92v-3.64a1.92 1.92 0 0 0 -1.92-1.97z"/></g></svg>

<svg xmlns="http://www.w3.org/2000/svg" viewBox="0 0 126.72 138.95"><defs><style>.cls-1{fill:#525566;}</style></defs><title>marker</title><g id="レイヤー_2" data-name="レイヤー 2"><g id="レイヤー_3" data-name="レイヤー 3"><path class="cls-1" d="M50.37,108.4,56.14,99,14.37,73.31,8.59,82.69s7.54,16.4-2.69,33l8.1,5,8.1,5C32.33,109.06,50.37,108.4,50.37,108.4Z"/><path class="cls-1" d="M99.6,28.41a5.69,5.69,0,0,0-1.86-7.81L65.63.84A5.68,5.68,0,0,0,57.82,2.7L16.46,69.91l41.78,25.7Z"/><polygon class="cls-1" points="0 132.61 14.02 132.61 17.63 126.75 6.97 120.19 0 132.61"/><path class="cls-1" d="M124.8,131.47H25.87A1.92,1.92,0,0,0,24,133.39V137A1.92,1.92,0,0,0,25.87,139H124.8a1.92,1.92,0,0,0,1.92-1.92v-3.64A1.92,1.92,0,0,0,124.8,131.47Z"/></g></g></svg>
